X:15512
T:Sister's Reel
R:Reel
S:(Liz Carroll)
H:
N:
D:Solo Album
Z:Adrian Scahill
M:4/4
L:1/8
K:D
A2DA (3AAA DA|ABAG EDB,D|G2DG BGDG|B2 (3BBB BAGB|\
A2DA (3AAA DA|ABAG EDB,D|(3Bcd ge fdec|dBAG FDD2:||\
(3gfg ag fdfa|(3gfg ed cAAf|(3gfg ag fdfg|fgaf g3f|\
(3gfg ag fdfa|(3gfg ed cAAf|(3gfg ag fdfg|fgaf gedB:||


